Front/img/common-section_sousmetier/illu-21.svg

<svg xmlns="http://www.w3.org/2000/svg" fill="none" viewBox="0 0 470 542"><path fill="#E1E1E1" d="M115.801 100c0-55.228 44.771-100 100-100h144c60.751 0 110 49.249 110 110v431h-354V100z"/><path fill="#D2D2D2" d="M385.783 524.429c30.275-30.181 69.493-94.367 83.612-121.518l-343.396-29.973-64.51 78.192c130.755 48.8 285.008 112.463 324.294 73.299z"/><path fill="#fff" d="M319.801 154h-204v7h204z"/><path fill="#C4C4C4" d="M238.801 88v64a2 2 0 01-2 2h-12a2 2 0 01-2-2V88a2 2 0 012-2h12a2 2 0 012 2z"/><circle r="3.5" fill="#fff" transform="matrix(-1 0 0 1 231.301 146.5)"/><path fill="#FF8139" d="M222.801 88v64a2 2 0 01-2 2h-12a2 2 0 01-2-2V88a2 2 0 012-2h12a2 2 0 012 2z"/><circle r="3.5" fill="#fff" transform="matrix(-1 0 0 1 215.301 146.5)"/><path fill="#FF8139" d="M172.801 88v64a2 2 0 01-2 2h-12a2 2 0 01-2-2V88a2 2 0 012-2h12a2 2 0 012 2z"/><circle r="3.5" fill="#fff" transform="matrix(-1 0 0 1 165.301 146.5)"/><path fill="#C4C4C4" d="M156.801 88v64a2 2 0 01-2 2h-12a2 2 0 01-2-2V88a2 2 0 012-2h12a2 2 0 012 2z"/><circle r="3.5" fill="#fff" transform="matrix(-1 0 0 1 149.301 146.5)"/><path fill="#666A6A" d="M183.986 98.094l6.85 1.444-11.549 54.796-6.85-1.444z"/><path fill="#C4C4C4" d="M191.207 98l6.927 1.008-8.066 55.416-6.927-1.008z"/><path fill="#666A6A" d="M198.834 98l6.967.674-5.395 55.74-6.967-.674z"/><path fill="#fff" d="M131.754 402.999l-3.266-75.604 341.313 75.604-55.641 39.269a99.998 99.998 0 01-83.941 14.785l-198.465-54.054z"/><path fill="#E1E1E1" d="M262.301 388c5.6-4.8 2.333-7.667 0-8.5-7.667 1.833-23.2 5.5-24 5.5-.8 0-49.933 14.9-72.933 20.733l-3.622 5.446 32.055 8.729v-5.846c7.5-2 40.5-19.062 47-19.062s14.5-1 21.5-7z"/><rect width="99" height="69" fill="#152D5D" rx="4" transform="matrix(-1 0 0 1 238.801 280)"/><rect width="95" height="66" fill="#152D5D" rx="4" transform="matrix(-1 0 0 1 236.801 282)"/><path fill="#152D5D" d="M257.801 360.5l-21.5-12h-95l19 12h97.5z"/><path fill="#fff" d="M257.801 358.5v2l-4-2h4z"/><path fill="#152D5D" d="M257.801 358.5l-21.5-12h-95l19 12h97.5z"/><path fill="#fff" d="M208.801 351.5l6.5 5h-23l-6-5h22.5zM214.301 350h-3.5l1 1h4l-1.5-1zM219.301 350h-3.5l1 1h4l-1.5-1zM224.301 350h-3.5l1 1h4l-1.5-1zM188.801 350h-4l1 1h4l-1-1zM183.801 350h-4l1 1h4l-1-1zM178.801 350h-4l1 1h4l-1-1zM173.801 350h-4l1 1h4l-1-1zM168.801 350h-4l1 1h4l-1-1zM163.801 350h-4l1 1h4l-1-1zM210.301 348h-3.5l1 1h4l-1.5-1zM205.301 348h-3.5l1 1h4l-1.5-1zM200.301 348h-3.5l1 1h4l-1.5-1zM195.301 348h-3.5l1 1h4l-1.5-1zM190.301 348h-3.5l1 1h4l-1.5-1zM215.301 348h-3.5l1 1h4l-1.5-1zM220.301 348h-3.5l1 1h4l-1.5-1zM185.801 348h-4l1 1h4l-1-1zM180.801 348h-4l1 1h4l-1-1zM175.801 348h-4l1 1h4l-1-1zM170.801 348h-4l1 1h4l-1-1zM165.801 348h-4l1 1h4l-1-1zM160.801 348h-4l1 1h4l-1-1zM190.944 351h14.857l-1.143-1h-14.857l1.143 1zM209.301 350h-3.5l1 1h4l-1.5-1z"/><path fill="#999696" d="M215.661 303.347a2.001 2.001 0 012.228-1.73l41.085 5.037a2 2 0 011.74 2.24l-8.438 65.591a2 2 0 01-2.227 1.73l-41.085-5.037a2 2 0 01-1.74-2.24l8.437-65.591z"/><path fill="#C4C4C4" d="M214.717 302.765a3 3 0 013.307-2.587l39.026 4.366a3 3 0 012.64 3.376l-8.548 64.357a3 3 0 01-3.308 2.586l-39.025-4.366a3 3 0 01-2.64-3.376l8.548-64.356z"/><path fill="#fff" d="M217.264 302.285l40.172 4.885-8.376 63.223-40.287-5.781 8.491-62.327z"/><path fill="#FFD300" d="M231.787 329.152c1.039.132 1.851.55 2.436 1.253.577.702.897 1.694.959 2.975l-5.041-.639-.216 1.702 5.207.661-.041.5-.077.608-.077.429-4.511-.572-.214 1.691 4.323.549c-.764 2.239-2.251 3.219-4.462 2.939-1.054-.134-2.105-.5-3.153-1.097l-.285 2.245c.909.572 2.004.939 3.287 1.102 1.776.225 3.283-.078 4.519-.91 1.229-.833 2.13-2.149 2.703-3.948l1.681.213.214-1.692-1.504-.191.074-.406.052-.409.069-.721 1.504.19.216-1.702-1.658-.211c-.046-1.885-.566-3.427-1.56-4.624-.994-1.197-2.383-1.909-4.166-2.135-1.474-.187-2.835-.03-4.082.471l.667 2.185c1.206-.416 2.251-.568 3.136-.456z"/><path fill="#E2BBA6" d="M235.801 368c-.919 2.144-4.5 5-7 6v17c8-1.5 8.5-1.5 11.5-1.5 8 0 10.5-1 16-3.5 3.053-1.388 7-4.5 7-6.5s-1.5-5-.5-7.5.5-5-1-7-3.5-4-3.5-7.5c0-2.8-1.5-5.5-3-7l-1.5 10.5c0 3.6-2.5 7.5-9 5.5-3.5-1.077-4-3.5-4-5.5 0-2.5 2.5-8.5 1-8.5s-3.5 2-4.5 6.5 0 5.5-1.5 9zM150.977 394.745s-10.865-1.462-19.56-12.276c0 0 2.169 9.092-9.429 19.505-8.033 7.189-1.767 45.488 1.617 52.246 0 0-32.052 31.58-84.226 6.288 0 0 13.104-47.69 14.058-74.654 1.174-30.619 4.719-50.304 15.443-79.211 10.724-28.906 13.264-44.856 11.809-60.076-1.456-15.219-.723-39.049 26.107-44.806 26.83-5.758 30.003 25.792 30.003 25.792s2.37 40.341-8.184 49.583c-9.248 8.15-25.103-2.193-25.103-2.193s-3.675 18.714.583 25.322c0 0 5.874 6.719 20.383 12.496 15.152 6.008 17.582 50.064 25.615 58.134"/><path fill="#CEA999" d="M120.029 202.23c1.075 6.559 2.792 17.092 4.378 27.475-1.004-9.782-2.861-20.616-4.147-27.394l-.231-.081z"/><path fill="#E2BBA6" d="M136.778 227.59l-12.371 2.113.623 9.411c.12 5.167-.292 9.312-1.567 11.275-5.342 8.24-7.47-11.014-11.889-10.594-4.418.421-6.476 5.447-3.303 14.018 3.173 8.571-8.234 10.954-9.218 15.76-.984 4.806-8.645 31.87 0 41.132l13.244-4.005a40.023 40.023 0 01-8.193-6.398c-4.258-6.608-.583-25.322-.583-25.322s15.845 10.343 25.103 2.193a12.028 12.028 0 002.009-2.323c5.271-7.38 6.024-26.113 6.175-30.128.151-4.016-.03-17.132-.03-17.132z"/><path fill="#F3D6C6" d="M130.801 254.5v-28l6.5 10.5c0 5.167-.5 18.1-2.5 28.5-2 10.4-9 14-12 14.5 7-5.5 8-18 8-25.5z"/><path fill="#2F2417" d="M114.726 240.516c2.8 2.4 5.167 12.333 6 17-1-11.5 6.898-15.699 15.5-20 6-3 12.188-10 10-17-2.5-8-5.5-5-13-14.5s-17.79-8.526-23-6.5c-9 3.5-9.5 4.5-15 7.5-4.908 2.677-5.567 1.484-14 5.5-10.5 5-12 19.5-8.5 28s6 8 3.5 15 0 10 3.5 13.5c2.8 2.8 3.833 7.166 4 9 1.5-3 7.5-6.5 13.5-5.5s5.5-6 9.5-8.5 5.5-5 3-12 1.5-14.5 5-11.5z"/><path fill="#4F3C27" d="M145.725 228.015c1-2 2.2-7.1-1-11.5-4-5.5-5.5-2-10.5-9s-10.5-11-21.5-9-13.329 6-23.829 9c-10.23 2.923-16.825 8.218-18.083 22.36a8.152 8.152 0 00-.088 1.14c.026-.386.055-.766.088-1.14.437-3.05 2.598-8.352 8.912-11.86 9-5 14.5-5 25-10.5s18-8 24.5 0 12.5 7.5 14.5 11.5 2 5 2 9z"/><path fill="#292289" d="M70.507 302.164s-4.8 4.005-9.128 16.02c-4.328 12.016 6.929-6.918 6.929-6.918l1.325-6.699.874-2.403z"/><path fill="#F4EFEF" d="M122.299 450.633s15.245 54.657 14.381 89.06H19.801s1-27.194 5.5-45.194c4.5-18 15.975-41.213 15.975-41.213s44.533 22.819 81.023-2.653z"/><path fill="#FF8139" d="M228.801 373.5c-15 2.5-47.996 5.732-66-11.5-13.877-13.277-13-36-31.384-49.5-9.429-6.5-23.786-11.557-28.616-15-23 2-24.77-.074-29.5-5-4 3.5-16.5 5-23.44 29.5-3.94 13.911-7.49 44.391-8.594 75-1.005 26.964 0 56.287 0 56.287 7.34 33.453 82.338.931 82.338.931C125.801 443 129.301 414 129.301 414l2.116-31.532c8.695 10.833 22.251 17.021 22.251 17.021 20.554 11.785 64.133-4.989 75.133-8.587V373.5z"/><path fill="#D3662F" d="M228.801 390.999v-5.5s-35 16.472-57.5 13.989c-7.5-.828-16.328-7.209-25.676-9.983-9.348-2.773-18.506-20.485-18.506-20.485-.803 18.373-12.883 21.266-20.233 36.245-5.452 11.115-1.526 40.472.864 54.89 9.348-3.124 15.855-5.938 15.855-5.938-2.952-7.85-9.62-45.057-1.617-52.246 11.598-10.413 9.429-19.504 9.429-19.504 8.695 10.833 22.251 17.021 22.251 17.021 20.555 11.815 64.633-4.989 75.133-8.489z"/><path fill="#000" d="M73.478 464.07c.181 1.212.352 2.393.523 3.565-.171-1.172-.342-2.353-.523-3.565zM73.337 463.15c0-.321-.09-.641-.14-1.002.04.361.1.681.14 1.002z" opacity=".3"/><path fill="#E1E1E1" d="M73.937 521l-4.136 19h10c-2-9-5.228-16.833-5.864-19z"/><path fill="#C4C4C4" d="M73.8 521l-4 19h-8l4-14.5-10.5-6c4.8.8 14.334 1.333 18.5 1.5z"/><path fill="#F4EFEF" d="M222.301 445.502c-11.2.4-54.667 6.166-75 9h47c16.8 5.6 22 27.833 22.5 36.499v50h48c-4.667-21.166-14.6-65.699-17-74.499-3-11-11.5-21.5-25.5-21z"/><path fill="#F4EFEF" d="M174.801 429.999l-29 5v19.5l58.5-7.5c-.4-17.6-19.834-18.667-29.5-17z"/><path fill="#152D5D" d="M110.916 355.449c-12.889-8.781-40.94-11.118-65.63-11.273C19.476 344.015-.2 365.729-.2 391.538v148.46l216.829 1c.129-4.311.309-20.599 0-47.261-.308-26.663-15.047-37.308-22.377-39.298h-48.227c.617-60.886-9.494-81.539-35.11-98.99z"/><ellipse fill="#152D5D" rx="24.5" ry="9" transform="matrix(-1 0 0 1 375.301 406)"/><ellipse fill="#152D5D" rx="24.5" ry="9" transform="matrix(-1 0 0 1 375.301 391)"/><path fill="#152D5D" d="M399.801 406v-15h-49v15h49z"/><ellipse fill="#152D5D" rx="4.5" ry="13" transform="scale(-1 1) rotate(-15.345 920.386 1435.344)"/><path stroke="#fff" stroke-width="5" d="M375.301 388.5v-63c-.167-6.833-5.7-22.3-26.5-29.5"/><path fill="#152D5D" d="M340.801 278l9.5 4-7 25-12-4c0-13 5-22 9.5-25z"/><path fill="#fff" d="M304.198 248.992l35.882 28.847c-7.848 8.375-9.08 20.238-8.714 25.123l-36.314-3.313c-7.317-28.143 3.048-45.497 9.146-50.657z"/><ellipse fill="#152D5D" rx="13.5" ry="7" transform="matrix(-1 0 0 1 314.301 371)"/><ellipse fill="#152D5D" rx="13.5" ry="6" transform="matrix(-1 0 0 1 314.301 348)"/><path fill="#152D5D" d="M327.801 371v-23h-27v23h27z"/><ellipse fill="#000" rx="11.5" ry="5" transform="matrix(-1 0 0 1 314.301 348)"/><path fill="#FF8139" d="M327.801 330l-4.5 21c-.8.8-2 1-2.5 1l5-22.5 2 .5z"/><path fill="#FFD300" d="M305.801 331.5l7.5 21.5c-1.6 0-3-.333-3.5-.5l-7-20 3-1z"/><ellipse fill="#FAFAFC" rx="1.486" ry="1.417" transform="matrix(-1 0 0 1 226.667 369.687)"/></svg>

<svg width="470" height="542" viewBox="0 0 470 542" fill="none" xmlns="http://www.w3.org/2000/svg">
<path d="M115.801 100C115.801 44.7715 160.572 0 215.801 0H359.801C420.552 0 469.801 49.2487 469.801 110V541H115.801V100Z" fill="#E1E1E1"/>
<path d="M385.783 524.429C416.058 494.248 455.276 430.062 469.395 402.911L125.999 372.938L61.4896 451.13C192.244 499.93 346.497 563.593 385.783 524.429Z" fill="#D2D2D2"/>
<rect width="204" height="7" transform="matrix(-1 0 0 1 319.801 154)" fill="white"/>
<path d="M238.801 88V152C238.801 153.105 237.905 154 236.801 154H224.801C223.696 154 222.801 153.105 222.801 152V88C222.801 86.8954 223.696 86 224.801 86H236.801C237.905 86 238.801 86.8954 238.801 88Z" fill="#C4C4C4"/>
<circle r="3.5" transform="matrix(-1 0 0 1 231.301 146.5)" fill="white"/>
<path d="M222.801 88V152C222.801 153.105 221.905 154 220.801 154H208.801C207.696 154 206.801 153.105 206.801 152V88C206.801 86.8954 207.696 86 208.801 86H220.801C221.905 86 222.801 86.8954 222.801 88Z" fill="#FF8139"/>
<circle r="3.5" transform="matrix(-1 0 0 1 215.301 146.5)" fill="white"/>
<path d="M172.801 88V152C172.801 153.105 171.905 154 170.801 154H158.801C157.696 154 156.801 153.105 156.801 152V88C156.801 86.8954 157.696 86 158.801 86H170.801C171.905 86 172.801 86.8954 172.801 88Z" fill="#FF8139"/>
<circle r="3.5" transform="matrix(-1 0 0 1 165.301 146.5)" fill="white"/>
<path d="M156.801 88V152C156.801 153.105 155.905 154 154.801 154H142.801C141.696 154 140.801 153.105 140.801 152V88C140.801 86.8954 141.696 86 142.801 86H154.801C155.905 86 156.801 86.8954 156.801 88Z" fill="#C4C4C4"/>
<circle r="3.5" transform="matrix(-1 0 0 1 149.301 146.5)" fill="white"/>
<rect x="183.986" y="98.0938" width="7" height="56" transform="rotate(11.901 183.986 98.0938)" fill="#666A6A"/>
<rect x="191.207" y="98" width="7" height="56" transform="rotate(8.2814 191.207 98)" fill="#C4C4C4"/>
<rect x="198.834" y="98" width="7" height="56" transform="rotate(5.52849 198.834 98)" fill="#666A6A"/>
<path d="M131.754 402.999L128.488 327.395L469.801 402.999L414.16 442.268C389.786 459.471 359.004 464.893 330.219 457.053L131.754 402.999Z" fill="white"/>
<path d="M262.301 388C267.901 383.2 264.634 380.333 262.301 379.5C254.634 381.333 239.101 385 238.301 385C237.501 385 188.368 399.9 165.368 405.733L161.746 411.179L193.801 419.908V414.062C201.301 412.062 234.301 395 240.801 395C247.301 395 255.301 394 262.301 388Z" fill="#E1E1E1"/>
<rect width="99" height="69" rx="4" transform="matrix(-1 0 0 1 238.801 280)" fill="#152D5D"/>
<rect width="95" height="66" rx="4" transform="matrix(-1 0 0 1 236.801 282)" fill="#152D5D"/>
<path d="M257.801 360.5L236.301 348.5H141.301L160.301 360.5H257.801Z" fill="#152D5D"/>
<path d="M257.801 358.5V360.5L253.801 358.5H257.801Z" fill="white"/>
<path d="M257.801 358.5L236.301 346.5H141.301L160.301 358.5H257.801Z" fill="#152D5D"/>
<path d="M208.801 351.5L215.301 356.5H192.301L186.301 351.5H208.801Z" fill="white"/>
<path d="M214.301 350H210.801L211.801 351H215.801L214.301 350Z" fill="white"/>
<path d="M219.301 350H215.801L216.801 351H220.801L219.301 350Z" fill="white"/>
<path d="M224.301 350H220.801L221.801 351H225.801L224.301 350Z" fill="white"/>
<path d="M188.801 350H184.801L185.801 351H189.801L188.801 350Z" fill="white"/>
<path d="M183.801 350H179.801L180.801 351H184.801L183.801 350Z" fill="white"/>
<path d="M178.801 350H174.801L175.801 351H179.801L178.801 350Z" fill="white"/>
<path d="M173.801 350H169.801L170.801 351H174.801L173.801 350Z" fill="white"/>
<path d="M168.801 350H164.801L165.801 351H169.801L168.801 350Z" fill="white"/>
<path d="M163.801 350H159.801L160.801 351H164.801L163.801 350Z" fill="white"/>
<path d="M210.301 348H206.801L207.801 349H211.801L210.301 348Z" fill="white"/>
<path d="M205.301 348H201.801L202.801 349H206.801L205.301 348Z" fill="white"/>
<path d="M200.301 348H196.801L197.801 349H201.801L200.301 348Z" fill="white"/>
<path d="M195.301 348H191.801L192.801 349H196.801L195.301 348Z" fill="white"/>
<path d="M190.301 348H186.801L187.801 349H191.801L190.301 348Z" fill="white"/>
<path d="M215.301 348H211.801L212.801 349H216.801L215.301 348Z" fill="white"/>
<path d="M220.301 348H216.801L217.801 349H221.801L220.301 348Z" fill="white"/>
<path d="M185.801 348H181.801L182.801 349H186.801L185.801 348Z" fill="white"/>
<path d="M180.801 348H176.801L177.801 349H181.801L180.801 348Z" fill="white"/>
<path d="M175.801 348H171.801L172.801 349H176.801L175.801 348Z" fill="white"/>
<path d="M170.801 348H166.801L167.801 349H171.801L170.801 348Z" fill="white"/>
<path d="M165.801 348H161.801L162.801 349H166.801L165.801 348Z" fill="white"/>
<path d="M160.801 348H156.801L157.801 349H161.801L160.801 348Z" fill="white"/>
<path d="M190.944 351H205.801L204.658 350H189.801L190.944 351Z" fill="white"/>
<path d="M209.301 350H205.801L206.801 351H210.801L209.301 350Z" fill="white"/>
<path d="M215.661 303.347C215.802 302.256 216.797 301.483 217.889 301.617L258.974 306.654C260.075 306.789 260.855 307.794 260.714 308.894L252.276 374.485C252.136 375.576 251.141 376.349 250.049 376.215L208.964 371.178C207.863 371.043 207.082 370.038 207.224 368.938L215.661 303.347Z" fill="#999696"/>
<path d="M214.717 302.765C214.932 301.146 216.402 299.997 218.024 300.178L257.05 304.544C258.72 304.731 259.911 306.254 259.69 307.92L251.142 372.277C250.927 373.895 249.457 375.045 247.834 374.863L208.809 370.497C207.139 370.31 205.948 368.787 206.169 367.121L214.717 302.765Z" fill="#C4C4C4"/>
<path d="M217.264 302.285L257.436 307.17L249.06 370.393L208.773 364.612L217.264 302.285Z" fill="white"/>
<path d="M231.787 329.152C232.826 329.284 233.638 329.702 234.223 330.405C234.8 331.107 235.12 332.099 235.182 333.38L230.141 332.741L229.925 334.443L235.132 335.104L235.091 335.604L235.014 336.212L234.937 336.641L230.426 336.069L230.212 337.76L234.535 338.309C233.771 340.548 232.284 341.528 230.073 341.248C229.019 341.114 227.968 340.748 226.92 340.151L226.635 342.396C227.544 342.968 228.639 343.335 229.922 343.498C231.698 343.723 233.205 343.42 234.441 342.588C235.67 341.755 236.571 340.439 237.144 338.64L238.825 338.853L239.039 337.161L237.535 336.97L237.609 336.564L237.661 336.155L237.73 335.434L239.234 335.624L239.45 333.922L237.792 333.711C237.746 331.826 237.226 330.284 236.232 329.087C235.238 327.89 233.849 327.178 232.066 326.952C230.592 326.765 229.231 326.922 227.984 327.423L228.651 329.608C229.857 329.192 230.902 329.04 231.787 329.152Z" fill="#FFD300"/>
<path d="M235.801 368C234.882 370.144 231.301 373 228.801 374V391C236.801 389.5 237.301 389.5 240.301 389.5C248.301 389.5 250.801 388.5 256.301 386C259.354 384.612 263.301 381.5 263.301 379.5C263.301 377.5 261.801 374.5 262.801 372C263.801 369.5 263.301 367 261.801 365C260.301 363 258.301 361 258.301 357.5C258.301 354.7 256.801 352 255.301 350.5L253.801 361C253.801 364.6 251.301 368.5 244.801 366.5C241.301 365.423 240.801 363 240.801 361C240.801 358.5 243.301 352.5 241.801 352.5C240.301 352.5 238.301 354.5 237.301 359C236.301 363.5 237.301 364.5 235.801 368Z" fill="#E2BBA6"/>
<path d="M150.977 394.745C150.977 394.745 140.112 393.283 131.417 382.469C131.417 382.469 133.586 391.561 121.988 401.974C113.955 409.163 120.221 447.462 123.605 454.22C123.605 454.22 91.5531 485.8 39.3789 460.508C39.3789 460.508 52.4827 412.818 53.4366 385.854C54.6114 355.235 58.156 335.55 68.88 306.643C79.604 277.737 82.1445 261.787 80.6885 246.567C79.2325 231.348 79.9655 207.518 106.796 201.761C133.626 196.003 136.799 227.553 136.799 227.553C136.799 227.553 139.169 267.894 128.615 277.136C119.367 285.286 103.512 274.943 103.512 274.943C103.512 274.943 99.8371 293.657 104.095 300.265C104.095 300.265 109.969 306.984 124.478 312.761C139.63 318.769 142.06 362.825 150.093 370.895" fill="#E2BBA6"/>
<path d="M120.029 202.23C121.104 208.789 122.821 219.322 124.407 229.705C123.403 219.923 121.546 209.089 120.26 202.311L120.029 202.23Z" fill="#CEA999"/>
<path d="M136.778 227.59L124.407 229.703L125.03 239.114C125.15 244.281 124.738 248.426 123.463 250.389C118.121 258.629 115.993 239.375 111.574 239.795C107.156 240.216 105.098 245.242 108.271 253.813C111.444 262.384 100.037 264.767 99.053 269.573C98.069 274.379 90.4075 301.443 99.053 310.705L112.297 306.7C109.299 304.932 106.544 302.781 104.104 300.302C99.8463 293.694 103.521 274.98 103.521 274.98C103.521 274.98 119.366 285.323 128.624 277.173C129.391 276.487 130.066 275.706 130.633 274.85C135.904 267.47 136.657 248.737 136.808 244.722C136.959 240.706 136.778 227.59 136.778 227.59Z" fill="#E2BBA6"/>
<path d="M130.801 254.5V226.5L137.301 237C137.301 242.167 136.801 255.1 134.801 265.5C132.801 275.9 125.801 279.5 122.801 280C129.801 274.5 130.801 262 130.801 254.5Z" fill="#F3D6C6"/>
<path d="M114.726 240.516C117.526 242.916 119.893 252.849 120.726 257.516C119.726 246.016 127.624 241.817 136.226 237.516C142.226 234.516 148.414 227.516 146.226 220.516C143.726 212.516 140.726 215.516 133.226 206.016C125.726 196.516 115.436 197.49 110.226 199.516C101.226 203.016 100.726 204.016 95.226 207.016C90.3184 209.693 89.6594 208.5 81.2259 212.516C70.7259 217.516 69.2259 232.016 72.7259 240.516C76.2259 249.016 78.726 248.516 76.226 255.516C73.726 262.516 76.226 265.516 79.726 269.016C82.526 271.816 83.5593 276.182 83.726 278.016C85.226 275.016 91.226 271.516 97.226 272.516C103.226 273.516 102.726 266.516 106.726 264.016C110.726 261.516 112.226 259.016 109.726 252.016C107.226 245.016 111.226 237.516 114.726 240.516Z" fill="#2F2417"/>
<path d="M145.725 228.015C146.725 226.015 147.925 220.915 144.725 216.515C140.725 211.015 139.225 214.515 134.225 207.515C129.225 200.515 123.725 196.515 112.725 198.515C101.725 200.515 99.3963 204.515 88.8963 207.515C78.6666 210.438 72.071 215.733 70.8134 229.875C70.7522 230.303 70.7249 230.687 70.7249 231.015C70.7507 230.629 70.7802 230.249 70.8134 229.875C71.2498 226.825 73.411 221.523 79.7249 218.015C88.7249 213.015 94.2249 213.015 104.725 207.515C115.225 202.015 122.725 199.515 129.225 207.515C135.725 215.515 141.725 215.015 143.725 219.015C145.725 223.015 145.725 224.015 145.725 228.015Z" fill="#4F3C27"/>
<path d="M70.5066 302.164C70.5066 302.164 65.7069 306.169 61.3791 318.184C57.0514 330.2 68.3076 311.266 68.3076 311.266L69.633 304.567L70.5066 302.164Z" fill="#292289"/>
<path d="M122.299 450.633C122.299 450.633 137.544 505.29 136.68 539.693H34.7466H19.8008C19.8008 539.693 20.8008 512.499 25.3008 494.499C29.8008 476.499 41.276 453.286 41.276 453.286C41.276 453.286 85.8088 476.105 122.299 450.633Z" fill="#F4EFEF"/>
<path d="M228.801 373.5C213.801 376 180.805 379.232 162.801 362C148.924 348.723 149.801 326 131.417 312.5C121.988 306 107.631 300.943 102.801 297.5C79.8013 299.5 78.0307 297.426 73.3013 292.5C69.3013 296 56.8013 297.5 49.8619 322C45.9218 335.911 42.3711 366.391 41.2666 397C40.2625 423.964 41.2666 453.287 41.2666 453.287C48.6067 486.74 123.605 454.218 123.605 454.218C125.801 443 129.301 414 129.301 414L131.417 382.468C140.112 393.301 153.668 399.489 153.668 399.489C174.222 411.274 217.801 394.5 228.801 390.902V373.5Z" fill="#FF8139"/>
<path d="M228.801 390.999V385.499C228.801 385.499 193.801 401.971 171.301 399.488C163.801 398.66 154.973 392.279 145.625 389.505C136.277 386.732 127.119 369.02 127.119 369.02C126.316 387.393 114.236 390.286 106.886 405.265C101.434 416.38 105.36 445.737 107.75 460.155C117.098 457.031 123.605 454.217 123.605 454.217C120.653 446.367 113.985 409.16 121.988 401.971C133.586 391.558 131.417 382.467 131.417 382.467C140.112 393.3 153.668 399.488 153.668 399.488C174.223 411.303 218.301 394.499 228.801 390.999Z" fill="#D3662F"/>
<g style="mix-blend-mode:multiply" opacity="0.3">
<path d="M73.4785 464.07C73.6593 465.282 73.83 466.463 74.0006 467.635C73.83 466.463 73.6593 465.282 73.4785 464.07Z" fill="black"/>
</g>
<g style="mix-blend-mode:multiply" opacity="0.3">
<path d="M73.3372 463.15C73.3372 462.829 73.2473 462.509 73.1973 462.148C73.2373 462.509 73.2972 462.829 73.3372 463.15Z" fill="black"/>
</g>
<path d="M73.9371 521L69.8008 540H79.8008C77.8008 531 74.5735 523.167 73.9371 521Z" fill="#E1E1E1"/>
<path d="M73.8008 521L69.8008 540H61.8008L65.8008 525.5L55.3008 519.5C60.1008 520.3 69.6341 520.833 73.8008 521Z" fill="#C4C4C4"/>
<path d="M222.301 445.502C211.101 445.902 167.634 451.668 147.301 454.502H194.301C211.101 460.102 216.301 482.335 216.801 491.001V541.001H264.801C260.134 519.835 250.201 475.302 247.801 466.502C244.801 455.502 236.301 445.002 222.301 445.502Z" fill="#F4EFEF"/>
<path d="M174.801 429.999L145.801 434.999V454.499L204.301 446.999C203.901 429.399 184.467 428.332 174.801 429.999Z" fill="#F4EFEF"/>
<path d="M110.916 355.449C98.0273 346.668 69.9767 344.331 45.2855 344.176C19.4764 344.015 -0.199219 365.729 -0.199219 391.538V539.998L216.63 540.998C216.759 536.687 216.939 520.399 216.63 493.737C216.322 467.074 201.583 456.429 194.253 454.439H146.026C146.643 393.553 136.532 372.9 110.916 355.449Z" fill="#152D5D"/>
<ellipse rx="24.5" ry="9" transform="matrix(-1 0 0 1 375.301 406)" fill="#152D5D"/>
<ellipse rx="24.5" ry="9" transform="matrix(-1 0 0 1 375.301 391)" fill="#152D5D"/>
<path d="M399.801 406V391H350.801V406H399.801Z" fill="#152D5D"/>
<ellipse rx="4.5" ry="13" transform="matrix(-0.964351 -0.264628 -0.264628 0.964351 347.021 294.729)" fill="#152D5D"/>
<path d="M375.301 388.5V325.5C375.134 318.667 369.601 303.2 348.801 296" stroke="white" stroke-width="5"/>
<path d="M340.801 278L350.301 282L343.301 307L331.301 303C331.301 290 336.301 281 340.801 278Z" fill="#152D5D"/>
<path d="M304.198 248.992L340.08 277.839C332.232 286.214 331 298.077 331.366 302.962L295.052 299.649C287.735 271.506 298.1 254.152 304.198 248.992Z" fill="white"/>
<ellipse rx="13.5" ry="7" transform="matrix(-1 0 0 1 314.301 371)" fill="#152D5D"/>
<ellipse rx="13.5" ry="6" transform="matrix(-1 0 0 1 314.301 348)" fill="#152D5D"/>
<path d="M327.801 371V348H300.801V371H327.801Z" fill="#152D5D"/>
<ellipse rx="11.5" ry="5" transform="matrix(-1 0 0 1 314.301 348)" fill="black"/>
<path d="M327.801 330L323.301 351C322.501 351.8 321.301 352 320.801 352L325.801 329.5L327.801 330Z" fill="#FF8139"/>
<path d="M305.801 331.5L313.301 353C311.701 353 310.301 352.667 309.801 352.5L302.801 332.5L305.801 331.5Z" fill="#FFD300"/>
<ellipse rx="1.48554" ry="1.41707" transform="matrix(-1 0 0 1 226.667 369.687)" fill="#FAFAFC"/>
</svg>
